X: 21481
M: 2/4
L: 1/16
K: C
V: 1 name="1"
c2G2B2G | c2^fg  agec | B2^fg ag=fd | c2fg agbg |\
c'2g2b2f2 | c'2^fg agfe | d2cd edBG | c4 z2 H|]


